!!!OTL: Fang xianxian
!!!ARE: Asia, China,ÿShandong Linqing
!! III, 356
!!!SCT: C1776
!!!YEM: Copyright 1995, estate of Helmut Schaffrath.
**kern
*ICvox
*Ivox
*M2/4
*k[f#]
*G:
{4dd
8b
8a
=1
4dd
8b
8a
=2
8a
8dd
8b
8a
=3
8b
8a
4g}
=4
{8g
8a
8b
8b
=5
8a
8b
4g
=6
8a
8g
8e
8e
=7
2d}
=8
{8g
8g
8g
8e
=9
4dd
8b
8a
=10
8g
8g
8g
8e
=11
4dd
4b}
=12
{8ee
8ee
8ee
8dd
=13
8gg
8b
4dd
=14
8g
8g
8g
8e
=15
4dd
4b}
=16
{8g
8g
8g
8e
=17
4dd
8b
8a
=18
8g
8g
8g
8e
=19
4dd
4b}
=20
{8dd
16ee
16gg
16ee
16dd
8b
=21
8a
4a
8b
=22
8dd
16ee
16gg
16ee
16dd
8b
=23
8a
8a
4r}
=24
{8dd
8b
8.dd
16ee
=25
8b
4dd
8dd
=26
8b
8a
8g
8b
=27
8a
8b
4dd}
=28
{8dd
8ee
8dd
8b
=29
8a
8b
8a
8g
=30
8d
8e
8r
8dd
=31
8b
8a
8g
8e
=32
4a
4a}
=33
{8.e
16g
8a
8b
=34
8a
8b
8f#
8e
=35
4d
4d}
=36
{8g
8g
8e
8g
=37
4a
4a
=38
8.g
16a
8b
8dd
=39
8a
8b
8f#
8e
=40
2d}
=41
{8dd
8b
8a
8b
=42
8dd
8b
4dd}
=43
{8dd
8ee
8dd
8b
=44
8dd
8b
4a}
=45
{8g
8g
8g
8e
=46
4dd
8.b
16a}
=47
{8g
8g
8g
8e
=48
4dd
4b}
=49
{8b
8dd
8b
8a
=50
4dd
4b}
=51
{8.g
16a
8b
8b
=52
8a
8g
4e
=53
[2d
=54
2d]}
==
!!!AGN: Xiaodiao
!!!AMT: simple duple
!!!AIN: vox
!!!EED: Helmut Schaffrath
!!!EEV: 1.0
*-
!!!ONB: Tied note syntax fixed by Craig Sapp, 2004/05/03/
